assets/svg/my_notify.svg

<svg height="32" viewBox="0 0 1024 1024" width="32" xmlns="http://www.w3.org/2000/svg"><g fill="#8a8a8a"><path d="m801.416533 797.0112h-42.666666v-333.866667c0-128.106666-105.728-228.48-240.704-228.48s-240.704 100.373334-240.704 228.48v333.866667h-42.666667v-333.866667c0-152.042666 124.458667-271.146666 283.370667-271.146666s283.370666 119.104 283.370666 271.146666z"/><path d="m512 938.666667c-70.592 0-128-57.408-128-128h42.666667c0 47.061333 38.272 85.333333 85.333333 85.333333s85.333333-38.272 85.333333-85.333333h42.666667c0 70.592-57.408 128-128 128"/><path d="m853.333333 832h-682.666666c-11.776 0-21.333334-9.557333-21.333334-21.333333s9.557334-21.333334 21.333334-21.333334h682.666666c11.797334 0 21.333334 9.557334 21.333334 21.333334s-9.536 21.333333-21.333334 21.333333"/><path d="m512 225.282133c-11.776 0-21.333333-9.557333-21.333333-21.333333v-97.28c0-11.776 9.557333-21.333333 21.333333-21.333333s21.333333 9.557333 21.333333 21.333333v97.28c0 11.776-9.557333 21.333333-21.333333 21.333333"/></g></svg>

<svg t="1661753384476" class="icon" viewBox="0 0 1024 1024" version="1.1" xmlns="http://www.w3.org/2000/svg" p-id="3153" width="32" height="32"><path d="M801.416533 797.0112 758.749867 797.0112 758.749867 463.144533C758.749867 335.037867 653.021867 234.664533 518.045867 234.664533 383.069867 234.664533 277.341867 335.037867 277.341867 463.144533L277.341867 797.0112 234.6752 797.0112 234.6752 463.144533C234.6752 311.101867 359.133867 191.997867 518.045867 191.997867 676.957867 191.997867 801.416533 311.101867 801.416533 463.144533L801.416533 797.0112Z" p-id="3154" fill="#8a8a8a"></path><path d="M512 938.666667C441.408 938.666667 384 881.258667 384 810.666667L426.666667 810.666667C426.666667 857.728 464.938667 896 512 896 559.061333 896 597.333333 857.728 597.333333 810.666667L640 810.666667C640 881.258667 582.592 938.666667 512 938.666667" p-id="3155" fill="#8a8a8a"></path><path d="M853.333333 832 170.666667 832C158.890667 832 149.333333 822.442667 149.333333 810.666667 149.333333 798.890667 158.890667 789.333333 170.666667 789.333333L853.333333 789.333333C865.130667 789.333333 874.666667 798.890667 874.666667 810.666667 874.666667 822.442667 865.130667 832 853.333333 832" p-id="3156" fill="#8a8a8a"></path><path d="M512 225.282133C500.224 225.282133 490.666667 215.7248 490.666667 203.9488L490.666667 106.6688C490.666667 94.8928 500.224 85.335467 512 85.335467 523.776 85.335467 533.333333 94.8928 533.333333 106.6688L533.333333 203.9488C533.333333 215.7248 523.776 225.282133 512 225.282133" p-id="3157" fill="#8a8a8a"></path></svg>
